X:1
T:Finlay M. Macrae  "CYMRU 22:51 11/09/97"
M:6/8
L:1/8
Q:80
C:P. Cunningham
S:Slow Air
K:HP
|: | {gef}e3/2d/2B{g}A2{GAG}A | \
a3/2g/2{a}e{a}g2a | \
{ef}e3/2d/2B{g}G3/2{d}G/2{e}G |
g3/2e/2{g}d{g}e/2g3/2d | | \
{gef}e3/2d/2B{g}A2{GAG}A | \
a3/2g/2{a}e{a}g2a |
{ef}e3/2d/2{G}d{g}e/2g3/2G | \
{g}A2{GAG}A|1 {g}Bd :: \
| {g}eg{g}a3/2e/2g{g}a2g |
{a}A3/2a/2g{a}e3/2d/2{G}d | \
{g}e/2g3/2e{gde}d2B | \
{g}G3/2d/2A{g}B3/2{d}G/2{e}G| |
{g}a3/2e/2g{g}a2g | \
{a}A3/2a/2g{a}e3/2d/2{G}d | \
{g}e/2g3/2e{gde}d3/2B/2e |
{g}A2{GAG}A :|
